static/assets/img/icons/theme/design/pen-tool-vector.svg

<svg height="24" viewBox="0 0 24 24" width="24" xmlns="http://www.w3.org/2000/svg"><g fill="none" fill-rule="evenodd"><path d="m0 0h24v24h-24z" opacity="0"/><g fill="#000"><path d="m11 3v8c0 .0862364.0109158.1699233.0314412.2497543-.6150975.341113-1.0314412.9970582-1.0314412 1.7502457 0 1.1045695.8954305 2 2 2s2-.8954305 2-2c0-.7531875-.4163437-1.4091327-1.0314412-1.7502457.0205254-.079831.0314412-.1635179.0314412-.2497543v-8l4.7925828 9.5851656c.1315481.2630963.1405894.5707659.0247178.8411329l-2.6874262 6.2706611c-.0787894.183842-.2595584.3030404-.4595725.3030404h-5.34060382c-.20001406 0-.38078312-.1191984-.45957252-.3030404l-2.6874262-6.2706611c-.11587158-.270367-.10683029-.5780366.02471784-.8411329z"/><path d="m10 21h4c.5522847 0 1 .4477153 1 1v1h-6v-1c0-.5522847.44771525-1 1-1z" opacity=".3"/></g></g></svg>

<svg width="24px" height="24px" viewBox="0 0 24 24" version="1.1" xmlns="http://www.w3.org/2000/svg" xmlns:xlink="http://www.w3.org/1999/xlink">
    <title>Icon For Pen-tool-vector</title>
    <g stroke="none" stroke-width="1" fill="none" fill-rule="evenodd">
        <rect opacity="0" x="0" y="0" width="24" height="24"></rect>
        <path d="M11,3 L11,11 C11,11.0862364 11.0109158,11.1699233 11.0314412,11.2497543 C10.4163437,11.5908673 10,12.2468125 10,13 C10,14.1045695 10.8954305,15 12,15 C13.1045695,15 14,14.1045695 14,13 C14,12.2468125 13.5836563,11.5908673 12.9685588,11.2497543 C12.9890842,11.1699233 13,11.0862364 13,11 L13,3 L17.7925828,12.5851656 C17.9241309,12.8482619 17.9331722,13.1559315 17.8173006,13.4262985 L15.1298744,19.6969596 C15.051085,19.8808016 14.870316,20 14.6703019,20 L9.32969808,20 C9.12968402,20 8.94891496,19.8808016 8.87012556,19.6969596 L6.18269936,13.4262985 C6.06682778,13.1559315 6.07586907,12.8482619 6.2074172,12.5851656 L11,3 Z" fill="#000000"></path>
        <path d="M10,21 L14,21 C14.5522847,21 15,21.4477153 15,22 L15,23 L9,23 L9,22 C9,21.4477153 9.44771525,21 10,21 Z" fill="#000000" opacity="0.3"></path>
    </g>
</svg>
